X:6502
T:The Baltimore Salute
O:england
M:C|
L:1/8
Q:250
C:Josie McDermott
S:Tionol
R:reel
A:Co. Sligo
D:Seamus Egan, SHA 29020
K:G
GA|B2eB dBGA|B2GB ABGE|DGGF GABd|e2dB A2GA|\
B2ge dBGA|B2GB ABGE |DGGF GABd|e2dB G2:||:
GA|BG~G2 gG~G2|gdeg dG~G2|GFGA BABd|eaag e2ga|\
b2ab gdde|g2eg dGGD|G2EG Dgge|dBAB G2:||


